X:383
T:B383-  Queen Dido, or Troy Town
Q:1/4=120
L:1/4
M:6/4
K:F
F2FF2F|\
L:1/4
M:2/2
G3/2B/A2|zcB3/2A/|\
L:1/4
M:3/2
Gcc=Bc2|\
L:1/4
M:2/2
cc/c/cA|d(c/B/)Ac|B3/2A/Gc|c=Bc2||c2AB|\
L:1/4
M:3/2
GBA(G/F/)EG|\
L:1/4
M:2/2
DDC(F/G/)|\
L:1/4
M:3/2
A2G2F2|]

